X:1
T:Black, White Yellow and Green
M:6/8
L:1/8
K:F
 C| CFF FEF|G-B A G2 G|A-B A| AGF| GBA GFE| F3 D3| CDE F3| c3 c3| Bcd|\
 c2 F| Fcc cBA| GBA GFE| F3 D3| CDE F3|
